packages/components/icons/assets/UserCheckFill.svg

<svg viewBox="0 0 24 24" xmlns="http://www.w3.org/2000/svg" data-title="UserCheckFill" fill="currentColor" stroke="none">
  <path d="M9.23129 2C6.95821 2 5.11554 3.84253 5.11554 6.11538 5.11554 8.38823 6.95821 10.2308 9.23129 10.2308 11.5044 10.2308 13.347 8.38823 13.347 6.11538 13.347 3.84253 11.5044 2 9.23129 2ZM12.3627 21.7189 10.0883 20.0153C9.05677 19.2427 8.84698 17.7803 9.61966 16.7489 10.3923 15.7175 11.8549 15.5078 12.8864 16.2804L14.1597 17.2341C14.5281 17.51 15.0504 17.4351 15.3264 17.0668L15.4692 16.8762C15.7912 16.4464 15.8982 15.8827 15.6878 15.3885 15.6346 15.2634 15.5782 15.1405 15.5186 15.0206 15.2305 14.4412 14.8344 13.8683 14.2762 13.4668 13.275 12.4921 12.0123 11.8278 10.6404 11.5553 9.23852 11.2768 7.78551 11.42 6.46492 11.9667 5.14434 12.5135 4.01541 13.4393 3.22073 14.6272 2.42605 15.8151 2.00126 17.2119 2 18.6411V20.7189C2 21.2712 2.44776 21.7189 3.0001 21.7189H12.3627Z"/>
  <path fill-rule="evenodd" clip-rule="evenodd" d="M21.5994 12.5843C22.0415 12.9154 22.1314 13.5421 21.8003 13.9841L16.0952 21.5995C15.9361 21.8118 15.6993 21.9522 15.4367 21.9899C15.1742 22.0275 14.9074 21.9594 14.6951 21.8003L10.8871 18.948C10.445 18.6169 10.3551 17.9902 10.6863 17.5482C11.0174 17.1061 11.6442 17.0162 12.0863 17.3473L15.0939 19.6001L20.1994 12.7851C20.5306 12.3431 21.1574 12.2532 21.5994 12.5843Z"/>
</svg>

<svg viewBox="0 0 24 24" xmlns="http://www.w3.org/2000/svg" data-title="UserCheckFill" fill="currentColor" stroke="none">
  <path d="m9.23,2c-2.27,0-4.12,1.84-4.12,4.12s1.84,4.12,4.12,4.12,4.12-1.84,4.12-4.12-1.84-4.12-4.12-4.12Zm3.13,19.72l-2.27-1.7c-1.03-.77-1.24-2.24-.47-3.27.77-1.03,2.24-1.24,3.27-.47l1.27.95c.37.28.89.2,1.17-.17l.14-.19c.32-.43.43-.99.22-1.49-.05-.13-.11-.25-.17-.37-.29-.58-.68-1.15-1.24-1.55-1-.97-2.26-1.64-3.64-1.91-1.4-.28-2.85-.14-4.18.41-1.32.55-2.45,1.47-3.24,2.66-.79,1.19-1.22,2.58-1.22,4.01v2.08c0,.55.45,1,1,1h9.36Z"/>
  <path fill-rule="evenodd" d="m21.6,12.58c.44.33.53.96.2,1.4l-5.71,7.62c-.16.21-.4.35-.66.39-.26.04-.53-.03-.74-.19l-3.81-2.85c-.44-.33-.53-.96-.2-1.4.33-.44.96-.53,1.4-.2l3.01,2.25,5.11-6.81c.33-.44.96-.53,1.4-.2Z"/>
</svg>
